24/places/gnome-fs-loading-icon.svg

<?xml version="1.0" encoding="UTF-8" standalone="no"?>
<!-- Created with Inkscape (http://www.inkscape.org/) -->

<svg
   xmlns:dc="http://purl.org/dc/elements/1.1/"
   xmlns:cc="http://creativecommons.org/ns#"
   xmlns:rdf="http://www.w3.org/1999/02/22-rdf-syntax-ns#"
   xmlns:svg="http://www.w3.org/2000/svg"
   xmlns="http://www.w3.org/2000/svg"
   xmlns:xlink="http://www.w3.org/1999/xlink"
   xmlns:sodipodi="http://sodipodi.sourceforge.net/DTD/sodipodi-0.dtd"
   xmlns:inkscape="http://www.inkscape.org/namespaces/inkscape"
   id="svg3272"
   width="24"
   height="24"
   version="1.0"
   sodipodi:docname="gnome-fs-loading-icon.svg"
   inkscape:version="0.92.3 (2405546, 2018-03-11)">
  <metadata
     id="metadata50">
    <rdf:RDF>
      <cc:Work
         rdf:about="">
        <dc:format>image/svg+xml</dc:format>
        <dc:type
           rdf:resource="http://purl.org/dc/dcmitype/StillImage" />
        <dc:title></dc:title>
      </cc:Work>
    </rdf:RDF>
  </metadata>
  <sodipodi:namedview
     pagecolor="#ffffff"
     bordercolor="#666666"
     borderopacity="1"
     objecttolerance="10"
     gridtolerance="10"
     guidetolerance="10"
     inkscape:pageopacity="0"
     inkscape:pageshadow="2"
     inkscape:window-width="1366"
     inkscape:window-height="690"
     id="namedview48"
     showgrid="false"
     inkscape:zoom="20.625"
     inkscape:cx="12"
     inkscape:cy="12"
     inkscape:window-x="0"
     inkscape:window-y="28"
     inkscape:window-maximized="1"
     inkscape:current-layer="svg3272"
     showguides="true"
     inkscape:guide-bbox="true" />
  <defs
     id="defs3274">
    <linearGradient
       id="linearGradient3404"
       x1="18.031"
       x2="20.055"
       y1="16.408"
       y2="24.628"
       gradientUnits="userSpaceOnUse">
      <stop
         id="stop2687"
         style="stop-color:#fff;stop-opacity:.27451"
         offset="0" />
      <stop
         id="stop2689"
         style="stop-color:#fff;stop-opacity:.078431"
         offset="1" />
    </linearGradient>
    <radialGradient
       id="radialGradient3402"
       cx="4.02"
       cy="5.5927"
       r="10.273"
       gradientTransform="matrix(-.016802 1.3943 -1.7966 -.021651 -5.3658 -19.339)"
       gradientUnits="userSpaceOnUse">
      <stop
         id="stop3754"
         style="stop-color:#fff"
         offset="0" />
      <stop
         id="stop3760"
         style="stop-color:#fff"
         offset=".84754" />
      <stop
         id="stop3756"
         style="stop-color:#fff;stop-opacity:0"
         offset="1" />
    </radialGradient>
    <linearGradient
       id="linearGradient3400"
       x1="9.7046"
       x2="9.7046"
       y1="20.882"
       y2="4.303"
       gradientTransform="matrix(.99458 0 0 .99458 -19.857 -19.778)"
       gradientUnits="userSpaceOnUse">
      <stop
         id="stop3624"
         style="stop-color:#bb2b12"
         offset="0" />
      <stop
         id="stop3626"
         style="stop-color:#cd7233"
         offset="1" />
    </linearGradient>
    <radialGradient
       id="radialGradient3398"
       cx="7.8186"
       cy="8.5609"
       r="11.268"
       gradientTransform="matrix(1.69 0 0 1.0436 -24.967 -20.534)"
       gradientUnits="userSpaceOnUse">
      <stop
         id="stop3618"
         style="stop-color:#edb763"
         offset="0" />
      <stop
         id="stop3270"
         style="stop-color:#de7f32"
         offset=".5" />
      <stop
         id="stop3620"
         style="stop-color:#d24413"
         offset="1" />
    </radialGradient>
    <linearGradient
       id="linearGradient3396"
       x1="9.8764"
       x2="9.8764"
       y1="2.6015"
       y2="23.062"
       gradientTransform="translate(-19.518 -21.496)"
       gradientUnits="userSpaceOnUse">
      <stop
         id="stop5159"
         style="stop-color:#c1c1c1"
         offset="0" />
      <stop
         id="stop5161"
         style="stop-color:#909090"
         offset="1" />
    </linearGradient>
    <linearGradient
       id="linearGradient3394"
       x1="-28.531"
       x2="-28.531"
       y1="17.956"
       y2="37.503"
       gradientTransform="translate(14.86 -35.997)"
       gradientUnits="userSpaceOnUse">
      <stop
         id="stop11113"
         style="stop-color:#fff"
         offset="0" />
      <stop
         id="stop11115"
         style="stop-color:#cdcdcd"
         offset=".91014" />
      <stop
         id="stop11117"
         style="stop-color:#a1a1a1"
         offset="1" />
    </linearGradient>
    <radialGradient
       id="radialGradient3392"
       cx="605.71"
       cy="486.65"
       r="117.14"
       gradientTransform="matrix(-2.7744 0 0 1.9697 112.76 -872.89)"
       gradientUnits="userSpaceOnUse"
       xlink:href="#linearGradient5060" />
    <linearGradient
       id="linearGradient5060">
      <stop
         id="stop5062"
         offset="0" />
      <stop
         id="stop5064"
         style="stop-opacity:0"
         offset="1" />
    </linearGradient>
    <radialGradient
       id="radialGradient3390"
       cx="605.71"
       cy="486.65"
       r="117.14"
       gradientTransform="matrix(2.7744 0 0 1.9697 -1891.6 -872.89)"
       gradientUnits="userSpaceOnUse"
       xlink:href="#linearGradient5060" />
    <linearGradient
       id="linearGradient3388"
       x1="302.86"
       x2="302.86"
       y1="366.65"
       y2="609.51"
       gradientTransform="matrix(2.7744 0 0 1.9697 -1892.2 -872.89)"
       gradientUnits="userSpaceOnUse">
      <stop
         id="stop5050"
         style="stop-opacity:0"
         offset="0" />
      <stop
         id="stop5056"
         offset=".5" />
      <stop
         id="stop5052"
         style="stop-opacity:0"
         offset="1" />
    </linearGradient>
  </defs>
  <g
     id="g856"
     transform="matrix(0.85058195,0,0,0.85058195,1.8087152,1.9577663)">
    <path
       id="path2"
       d="m 3.9238281,0.38867188 c -0.4291581,0 -0.7773437,0.34631029 -0.7773437,0.77539062 0,0.4292359 0.3482634,0.7773437 0.7773437,0.7773437 h 1.375 v 2.4550782 c 0,2.4609315 1.3494937,4.7222714 3.8007813,6.3691406 0.3102413,0.208512 0.5039062,0.658098 0.5039062,1.171875 0,0.513776 -0.1937427,0.961487 -0.5039062,1.169922 -2.4513654,1.647024 -3.8007813,3.910318 -3.8007813,6.371094 v 2.453125 h -1.375 c -0.4291581,0 -0.7773437,0.348185 -0.7773437,0.777343 0,0.429236 0.3482634,0.777344 0.7773437,0.777344 H 19.869141 c 0.429158,0 0.777343,-0.348186 0.777343,-0.777344 0,-0.429158 -0.348263,-0.777343 -0.777343,-0.777343 h -1.375 v -2.453125 c 0,-2.460698 -1.351447,-4.724225 -3.802735,-6.371094 -0.310164,-0.20859 -0.501953,-0.656223 -0.501953,-1.169922 0,-0.513698 0.191945,-0.961487 0.501953,-1.169922 2.451444,-1.6471019 3.802579,-3.9103176 3.802735,-6.3710936 V 1.9414062 h 1.375 c 0.429158,0 0.777343,-0.3481856 0.777343,-0.7773437 0,-0.4291581 -0.348263,-0.77539063 -0.777343,-0.77539062 z M 6.8535156,1.9414062 H 16.939453 v 2.4550782 c 0,2.5995252 -1.95212,4.2986028 -3.115234,5.0800781 -0.745154,0.5009436 -1.189453,1.4210185 -1.189453,2.4609375 0,1.039919 0.444143,1.959761 1.189453,2.460938 1.162958,0.781397 3.115078,2.480708 3.115234,5.080078 v 2.453125 H 16.681641 C 16.042726,19.530052 12.782459,16.920126 12.375,16.601562 c -0.281231,-0.219944 -0.675878,-0.219788 -0.957031,0 -0.407459,0.318487 -3.6677258,2.92849 -4.3066409,5.330079 H 6.8535156 v -2.453125 c 0,-2.599603 1.9503235,-4.298836 3.1132813,-5.080078 C 10.712107,13.897495 11.15625,12.977574 11.15625,11.9375 11.15625,10.897425 10.712185,9.977584 9.9667969,9.4765625 8.8039169,8.6952428 6.8535156,6.9960874 6.8535156,4.3964844 Z"
       style="fill:#1a1a1a;stroke-width:0.07777421"
       inkscape:connector-curvature="0" />
    <path
       inkscape:connector-curvature="0"
       d="m 11.895808,15.243761 c 0.20439,0 0.404892,-0.08314 0.549397,-0.227722 0.145282,-0.144505 0.227722,-0.345085 0.227722,-0.549397 0,-0.204313 -0.08244,-0.404893 -0.227722,-0.549475 -0.144505,-0.144427 -0.345007,-0.227645 -0.549397,-0.227645 -0.204391,0 -0.404893,0.08314 -0.549397,0.227645 -0.144583,0.144582 -0.227723,0.345162 -0.227723,0.549475 0,0.204312 0.08306,0.404892 0.227723,0.549397 0.144504,0.144504 0.345006,0.227722 0.549397,0.227722 z"
       id="path4"
       style="fill:#1a1a1a;stroke-width:0.07777421" />
    <path
       inkscape:connector-curvature="0"
       d="m 11.896041,11.122117 c 0.429236,0 0.77712,-0.347962 0.77712,-0.77712 V 8.9711936 c 0,-0.4291581 -0.347962,-0.7771977 -0.77712,-0.7771977 -0.429158,0 -0.77712,0.3480396 -0.77712,0.7771977 v 1.3738034 c 0,0.429158 0.347884,0.77712 0.77712,0.77712 z"
       id="path6"
       style="fill:#1a1a1a;stroke-width:0.07777421" />
  </g>
</svg>

<?xml version="1.0" encoding="UTF-8" standalone="no"?>
<!-- Created with Inkscape (http://www.inkscape.org/) -->

<svg
   xmlns:dc="http://purl.org/dc/elements/1.1/"
   xmlns:cc="http://creativecommons.org/ns#"
   xmlns:rdf="http://www.w3.org/1999/02/22-rdf-syntax-ns#"
   xmlns:svg="http://www.w3.org/2000/svg"
   xmlns="http://www.w3.org/2000/svg"
   xmlns:xlink="http://www.w3.org/1999/xlink"
   xmlns:sodipodi="http://sodipodi.sourceforge.net/DTD/sodipodi-0.dtd"
   xmlns:inkscape="http://www.inkscape.org/namespaces/inkscape"
   id="svg3272"
   width="24"
   height="24"
   version="1.0"
   sodipodi:docname="gnome-fs-loading-icon.svg"
   inkscape:version="0.92.3 (2405546, 2018-03-11)">
  <metadata
     id="metadata50">
    <rdf:RDF>
      <cc:Work
         rdf:about="">
        <dc:format>image/svg+xml</dc:format>
        <dc:type
           rdf:resource="http://purl.org/dc/dcmitype/StillImage" />
        <dc:title></dc:title>
      </cc:Work>
    </rdf:RDF>
  </metadata>
  <sodipodi:namedview
     pagecolor="#ffffff"
     bordercolor="#666666"
     borderopacity="1"
     objecttolerance="10"
     gridtolerance="10"
     guidetolerance="10"
     inkscape:pageopacity="0"
     inkscape:pageshadow="2"
     inkscape:window-width="1366"
     inkscape:window-height="690"
     id="namedview48"
     showgrid="false"
     inkscape:zoom="10.708211"
     inkscape:cx="11.946605"
     inkscape:cy="19.470902"
     inkscape:window-x="0"
     inkscape:window-y="28"
     inkscape:window-maximized="1"
     inkscape:current-layer="svg3272" />
  <defs
     id="defs3274">
    <linearGradient
       id="linearGradient3404"
       x1="18.031"
       x2="20.055"
       y1="16.408"
       y2="24.628"
       gradientUnits="userSpaceOnUse">
      <stop
         id="stop2687"
         style="stop-color:#fff;stop-opacity:.27451"
         offset="0" />
      <stop
         id="stop2689"
         style="stop-color:#fff;stop-opacity:.078431"
         offset="1" />
    </linearGradient>
    <radialGradient
       id="radialGradient3402"
       cx="4.02"
       cy="5.5927"
       r="10.273"
       gradientTransform="matrix(-.016802 1.3943 -1.7966 -.021651 -5.3658 -19.339)"
       gradientUnits="userSpaceOnUse">
      <stop
         id="stop3754"
         style="stop-color:#fff"
         offset="0" />
      <stop
         id="stop3760"
         style="stop-color:#fff"
         offset=".84754" />
      <stop
         id="stop3756"
         style="stop-color:#fff;stop-opacity:0"
         offset="1" />
    </radialGradient>
    <linearGradient
       id="linearGradient3400"
       x1="9.7046"
       x2="9.7046"
       y1="20.882"
       y2="4.303"
       gradientTransform="matrix(.99458 0 0 .99458 -19.857 -19.778)"
       gradientUnits="userSpaceOnUse">
      <stop
         id="stop3624"
         style="stop-color:#bb2b12"
         offset="0" />
      <stop
         id="stop3626"
         style="stop-color:#cd7233"
         offset="1" />
    </linearGradient>
    <radialGradient
       id="radialGradient3398"
       cx="7.8186"
       cy="8.5609"
       r="11.268"
       gradientTransform="matrix(1.69 0 0 1.0436 -24.967 -20.534)"
       gradientUnits="userSpaceOnUse">
      <stop
         id="stop3618"
         style="stop-color:#edb763"
         offset="0" />
      <stop
         id="stop3270"
         style="stop-color:#de7f32"
         offset=".5" />
      <stop
         id="stop3620"
         style="stop-color:#d24413"
         offset="1" />
    </radialGradient>
    <linearGradient
       id="linearGradient3396"
       x1="9.8764"
       x2="9.8764"
       y1="2.6015"
       y2="23.062"
       gradientTransform="translate(-19.518 -21.496)"
       gradientUnits="userSpaceOnUse">
      <stop
         id="stop5159"
         style="stop-color:#c1c1c1"
         offset="0" />
      <stop
         id="stop5161"
         style="stop-color:#909090"
         offset="1" />
    </linearGradient>
    <linearGradient
       id="linearGradient3394"
       x1="-28.531"
       x2="-28.531"
       y1="17.956"
       y2="37.503"
       gradientTransform="translate(14.86 -35.997)"
       gradientUnits="userSpaceOnUse">
      <stop
         id="stop11113"
         style="stop-color:#fff"
         offset="0" />
      <stop
         id="stop11115"
         style="stop-color:#cdcdcd"
         offset=".91014" />
      <stop
         id="stop11117"
         style="stop-color:#a1a1a1"
         offset="1" />
    </linearGradient>
    <radialGradient
       id="radialGradient3392"
       cx="605.71"
       cy="486.65"
       r="117.14"
       gradientTransform="matrix(-2.7744 0 0 1.9697 112.76 -872.89)"
       gradientUnits="userSpaceOnUse"
       xlink:href="#linearGradient5060" />
    <linearGradient
       id="linearGradient5060">
      <stop
         id="stop5062"
         offset="0" />
      <stop
         id="stop5064"
         style="stop-opacity:0"
         offset="1" />
    </linearGradient>
    <radialGradient
       id="radialGradient3390"
       cx="605.71"
       cy="486.65"
       r="117.14"
       gradientTransform="matrix(2.7744 0 0 1.9697 -1891.6 -872.89)"
       gradientUnits="userSpaceOnUse"
       xlink:href="#linearGradient5060" />
    <linearGradient
       id="linearGradient3388"
       x1="302.86"
       x2="302.86"
       y1="366.65"
       y2="609.51"
       gradientTransform="matrix(2.7744 0 0 1.9697 -1892.2 -872.89)"
       gradientUnits="userSpaceOnUse">
      <stop
         id="stop5050"
         style="stop-opacity:0"
         offset="0" />
      <stop
         id="stop5056"
         offset=".5" />
      <stop
         id="stop5052"
         style="stop-opacity:0"
         offset="1" />
    </linearGradient>
  </defs>
  <g
     id="g856">
    <path
       id="path2"
       d="M 3.9238281 0.38867188 C 3.49467 0.38867188 3.1464844 0.73498217 3.1464844 1.1640625 C 3.1464844 1.5932984 3.4947478 1.9414062 3.9238281 1.9414062 L 5.2988281 1.9414062 L 5.2988281 4.3964844 C 5.2988281 6.8574159 6.6483218 9.1187558 9.0996094 10.765625 C 9.4098507 10.974137 9.6035156 11.423723 9.6035156 11.9375 C 9.6035156 12.451276 9.4097729 12.898987 9.0996094 13.107422 C 6.648244 14.754446 5.2988281 17.01774 5.2988281 19.478516 L 5.2988281 21.931641 L 3.9238281 21.931641 C 3.49467 21.931641 3.1464844 22.279826 3.1464844 22.708984 C 3.1464844 23.13822 3.4947478 23.486328 3.9238281 23.486328 L 19.869141 23.486328 C 20.298299 23.486328 20.646484 23.138142 20.646484 22.708984 C 20.646484 22.279826 20.298221 21.931641 19.869141 21.931641 L 18.494141 21.931641 L 18.494141 19.478516 C 18.494141 17.017818 17.142694 14.754291 14.691406 13.107422 C 14.381242 12.898832 14.189453 12.451199 14.189453 11.9375 C 14.189453 11.423802 14.381398 10.976013 14.691406 10.767578 C 17.14285 9.1204761 18.493985 6.8572604 18.494141 4.3964844 L 18.494141 1.9414062 L 19.869141 1.9414062 C 20.298299 1.9414062 20.646484 1.5932206 20.646484 1.1640625 C 20.646484 0.7349044 20.298221 0.38867187 19.869141 0.38867188 L 3.9238281 0.38867188 z M 6.8535156 1.9414062 L 16.939453 1.9414062 L 16.939453 4.3964844 C 16.939453 6.9960096 14.987333 8.6950872 13.824219 9.4765625 C 13.079065 9.9775061 12.634766 10.897581 12.634766 11.9375 C 12.634766 12.977419 13.078909 13.897261 13.824219 14.398438 C 14.987177 15.179835 16.939297 16.879146 16.939453 19.478516 L 16.939453 21.931641 L 16.681641 21.931641 C 16.042726 19.530052 12.782459 16.920126 12.375 16.601562 C 12.093769 16.381618 11.699122 16.381774 11.417969 16.601562 C 11.01051 16.920049 7.7502432 19.530052 7.1113281 21.931641 L 6.8535156 21.931641 L 6.8535156 19.478516 C 6.8535156 16.878913 8.8038391 15.17968 9.9667969 14.398438 C 10.712107 13.897495 11.15625 12.977574 11.15625 11.9375 C 11.15625 10.897425 10.712185 9.977584 9.9667969 9.4765625 C 8.8039169 8.6952428 6.8535156 6.9960874 6.8535156 4.3964844 L 6.8535156 1.9414062 z "
       style="fill:#1a1a1a;stroke-width:0.07777421" />
    <path
       inkscape:connector-curvature="0"
       d="m 11.895808,15.243761 c 0.20439,0 0.404892,-0.08314 0.549397,-0.227722 0.145282,-0.144505 0.227722,-0.345085 0.227722,-0.549397 0,-0.204313 -0.08244,-0.404893 -0.227722,-0.549475 -0.144505,-0.144427 -0.345007,-0.227645 -0.549397,-0.227645 -0.204391,0 -0.404893,0.08314 -0.549397,0.227645 -0.144583,0.144582 -0.227723,0.345162 -0.227723,0.549475 0,0.204312 0.08306,0.404892 0.227723,0.549397 0.144504,0.144504 0.345006,0.227722 0.549397,0.227722 z"
       id="path4"
       style="fill:#1a1a1a;stroke-width:0.07777421" />
    <path
       inkscape:connector-curvature="0"
       d="m 11.896041,11.122117 c 0.429236,0 0.77712,-0.347962 0.77712,-0.77712 V 8.9711936 c 0,-0.4291581 -0.347962,-0.7771977 -0.77712,-0.7771977 -0.429158,0 -0.77712,0.3480396 -0.77712,0.7771977 v 1.3738034 c 0,0.429158 0.347884,0.77712 0.77712,0.77712 z"
       id="path6"
       style="fill:#1a1a1a;stroke-width:0.07777421" />
  </g>
</svg>
